src/assets/title.svg

<svg fill="none" height="131" viewBox="0 0 241 131" width="241" xmlns="http://www.w3.org/2000/svg" xmlns:xlink="http://www.w3.org/1999/xlink"><linearGradient id="a" gradientUnits="userSpaceOnUse" x1="5" x2="241" y1="2" y2="84.6667"><stop offset="0" stop-color="#16c2bf"/><stop offset="1" stop-color="#9253bd"/></linearGradient><path d="m82.4 62.7c.8667 0 1.5333.4 2 1.2.5333.8.8 1.9.8 3.3 0 2.6-.6333 4.6667-1.9 6.2-3.7333 4.4667-7.3667 7.6-10.9 9.4-3.4667 1.8-7.6667 2.7-12.6 2.7-3.4667 0-6.6667-.4333-9.6-1.3s-6.5-2.1667-10.7-3.9c-3.8-1.6667-7.4667-3.0333-11-4.1-3.4 6.2-8.5 9.3-15.3 9.3-3.73333 0-6.7-.8333-8.9-2.5-2.26667-1.7333-3.4-3.9333-3.4-6.6 0-3.2667 1.56667-5.9667 4.7-8.1 3.13333-2.2 7.3-3.3 12.5-3.3h1.3l1.8-29.1c.4-6.6667 1.6-12.1667 3.6-16.5s4.7667-8.0333 8.3-11.1c3.0667-2.66667 6.5667-4.66667 10.5-6 3.9333-1.400004 8.1-2.100005 12.5-2.100005 7.2 0 12.7333 1.866665 16.6 5.599995 3.8667 3.73334 5.8 8.60001 5.8 14.60001 0 4.0667-.7333 7.3667-2.2 9.9-1.4667 2.4667-3.5 3.7-6.1 3.7-1.8667 0-3.3333-.4333-4.4-1.3-1.0667-.9333-1.6-2.2333-1.6-3.9 0-.6.1333-1.7.4-3.3.4-1.8667.6-3.5333.6-5 0-2.8-.8333-5-2.5-6.6-1.6-1.6667-4.0667-2.5-7.4-2.5-5.8667 0-10.4 1.9333-13.6 5.8-3.2 3.8-5.2333 9.8-6.1 18l-2.3 22.7c-.3333 3.2-.7667 5.9667-1.3 8.3 4.2667.7333 9.6 1.9 16 3.5 3.7333.9333 6.6 1.6 8.6 2s3.7667.6 5.3.6c3.8667 0 7.1667-.6333 9.9-1.9 2.8-1.3333 5.4333-3.4333 7.9-6.3.8-.9333 1.7-1.4 2.7-1.4zm45.885.2c.867 0 1.533.4333 2 1.3.533.8.8 1.8333.8 3.1 0 1.5333-.233 2.7333-.7 3.6s-1.2 1.6333-2.2 2.3l-19.2 12.9c-2.533 13.8-5.867 24.633-9.9998 32.5-4.0667 7.933-9.2667 11.9-15.6 11.9-3.4 0-6.1667-1.067-8.3-3.2-2.1334-2.067-3.2-4.8-3.2-8.2 0-3.133.7-6.333 2.1-9.6 1.4666-3.267 4.1333-7.033 8-11.3 3.9333-4.2 9.4666-9.0333 16.6-14.5l.3-2.3c.4666-2.4667 1-6 1.5998-10.6-1.3332 4.8-3.1998 8.4667-5.5998 11-2.4 2.4667-4.9334 3.7-7.6 3.7-3 0-5.4667-1.3667-7.4-4.1-1.8667-2.8-2.8-6.2667-2.8-10.4 0-5 .3333-9.5667 1-13.7.6666-4.2 1.7666-8.6333 3.3-13.3.6666-2 1.6-3.4333 2.8-4.3s3.1-1.3 5.7-1.3c1.4666 0 2.4666.2333 3 .7.6.4667.9 1.1667.9 2.1 0 .5333-.3667 2.3333-1.1 5.4-.6667 2.4667-1.2 4.7-1.6 6.7-.5334 2.7333-1 5.3667-1.4 7.9-.4 2.4667-.6 4.5-.6 6.1 0 2.5333.7 3.8 2.1 3.8 1 0 2.2333-1 3.7-3 1.5333-2 3.1333-5.0333 4.8-9.1 1.7328-4.0667 3.3998-9.0667 4.9998-15 .533-2 1.333-3.4333 2.4-4.3 1.133-.8667 2.8-1.3 5-1.3 1.533 0 2.6.2 3.2.6s.9 1.0667.9 2c0 1.6667-.867 7.4-2.6 17.2l-2.6 16.1c5.133-3.8667 10.133-7.4 15-10.6.867-.5333 1.633-.8 2.3-.8zm-43.7998 57.9c1.6666 0 3.5333-1.933 5.6-5.8 2.0666-3.867 4.1333-10.3 6.2-19.3-5.1334 4.333-8.8667 8.267-11.2 11.8-2.2667 3.6-3.4 6.733-3.4 9.4 0 1.133.2 2.067.6 2.8.4666.733 1.2 1.1 2.2 1.1zm46.4778-35.3c-2.534 0-4.334-1.3333-5.4-4-1-2.6667-1.5-6.9333-1.5-12.8 0-8.6667 1.233-16.9 3.7-24.7.6-1.9333 1.566-3.3333 2.9-4.2 1.4-.9333 3.333-1.4 5.8-1.4 1.333 0 2.266.1667 2.8.5.533.3333.8.9667.8 1.9 0 1.0667-.5 3.4667-1.5 7.2-.667 2.6667-1.2 5-1.6 7s-.734 4.4667-1 7.4c2.2-5.7333 4.666-10.4 7.4-14 2.733-3.6 5.4-6.1667 8-7.7 2.666-1.5333 5.1-2.3 7.3-2.3 4.333 0 6.5 2.1667 6.5 6.5 0 .8667-.3 2.9667-.9 6.3-.534 2.6667-.8 4.3333-.8 5 0 2.3333.833 3.5 2.5 3.5 1.866 0 4.266-1.4667 7.2-4.4.866-.8667 1.766-1.3 2.7-1.3.866 0 1.533.4 1.999 1.2.534.7333.801 1.7333.801 3 0 2.4667-.667 4.4-2 5.8-1.867 1.9333-4.067 3.6-6.6 5-2.467 1.3333-5.1 2-7.9 2-3.534 0-6.234-.9-8.1-2.7-1.8-1.8-2.7-4.2333-2.7-7.3 0-1 .1-2 .3-3 .133-1.3333.2-2.2333.2-2.7 0-1.0667-.367-1.6-1.1-1.6-1 0-2.334 1.1333-4 3.4-1.6 2.2-3.2 5.1333-4.8 8.8s-2.9 7.5333-3.9 11.6c-.734 3.1333-1.6 5.2667-2.6 6.4-.934 1.0667-2.434 1.6-4.5 1.6zm57.507 0c-6.533 0-11.633-1.8333-15.3-5.5-3.6-3.7333-5.4-8.6333-5.4-14.7 0-5.4 1.067-10.1333 3.2-14.2 2.134-4.0667 4.9-7.2 8.3-9.4s6.967-3.3 10.7-3.3c3.667 0 6.5 1.1 8.5 3.3 2.067 2.1333 3.1 4.9 3.1 8.3 0 2.8-.633 5.1667-1.9 7.1-1.2 1.9333-2.8 2.9-4.8 2.9-1.266 0-2.3-.3-3.1-.9-.733-.6-1.1-1.4333-1.1-2.5 0-.4667.067-1 .2-1.6.134-.6.234-1.0333.3-1.3.334-1 .5-1.9333.5-2.8s-.233-1.5333-.7-2c-.4-.4667-1-.7-1.8-.7-1.533 0-2.966.7-4.3 2.1-1.333 1.3333-2.4 3.1667-3.2 5.5s-1.2 4.9-1.2 7.7c0 7.7333 3.367 11.6 10.1 11.6 2.734 0 5.667-.9 8.8-2.7 3.2-1.8667 6.334-4.6333 9.4-8.3.8-.9333 1.7-1.4 2.7-1.4.867 0 1.534.4 2 1.2.534.8.8 1.9.8 3.3 0 2.5333-.633 4.6-1.9 6.2-3.133 3.8667-6.9 6.8667-11.3 9-4.333 2.0667-8.533 3.1-12.6 3.1zm36.317 2.2c-3.467 0-6.134-.8-8-2.4-1.8-1.6-2.7-3.4-2.7-5.4 0-1.7333.633-3.2333 1.9-4.5 1.266-1.2667 3.133-1.9 5.6-1.9.866 0 1.866.1 3 .3 1.2.1333 2.1.2333 2.7.3-.067-1.7333-.467-3.3667-1.2-4.9-.667-1.5333-1.534-3-2.6-4.4-1.067-1.4667-2.067-2.7333-3-3.8-2.067 3.9333-4.134 7.2-6.2 9.8-2 2.6-4.2 5.0667-6.6 7.4-1.2 1.2-2.467 1.8-3.8 1.8-1.067 0-1.934-.3667-2.6-1.1-.667-.8-1-1.7667-1-2.9 0-1.3333.466-2.5667 1.4-3.7l1.3-1.6c3.666-4.5333 6.433-8.2667 8.3-11.2 1.2-1.9333 2.4-4.2333 3.6-6.9 1.266-2.6667 2.9-6.3 4.9-10.9 1.266-2.9333 3.9-4.4 7.9-4.4 1.866 0 3.166.1667 3.9.5.733.3333 1.1.8667 1.1 1.6 0 .4-.134 1.0333-.4 1.9-.267.8667-.634 1.7333-1.1 2.6-1.2 2.4-1.8 4.4333-1.8 6.1 0 1 .333 2.1 1 3.3.733 1.2 1.833 2.7 3.3 4.5 2.133 2.8 3.733 5.2 4.8 7.2 1.133 1.9333 1.7 4.0667 1.7 6.4 0 2.8-.667 5.4667-2 8-1.267 2.4667-3.067 4.4667-5.4 6-2.334 1.5333-5 2.3-8 2.3z" fill="url(#a)"/></svg>

<svg width="241" height="131" viewBox="0 0 241 131" fill="none" xmlns="http://www.w3.org/2000/svg">
<path d="M82.4 62.7C83.2667 62.7 83.9333 63.1 84.4 63.9C84.9333 64.7 85.2 65.8 85.2 67.2C85.2 69.8 84.5667 71.8667 83.3 73.4C79.5667 77.8667 75.9333 81 72.4 82.8C68.9333 84.6 64.7333 85.5 59.8 85.5C56.3333 85.5 53.1333 85.0667 50.2 84.2C47.2667 83.3333 43.7 82.0333 39.5 80.3C35.7 78.6333 32.0333 77.2667 28.5 76.2C25.1 82.4 20 85.5 13.2 85.5C9.46667 85.5 6.5 84.6667 4.3 83C2.03333 81.2667 0.9 79.0667 0.9 76.4C0.9 73.1333 2.46667 70.4333 5.6 68.3C8.73333 66.1 12.9 65 18.1 65H19.4L21.2 35.9C21.6 29.2333 22.8 23.7333 24.8 19.4C26.8 15.0667 29.5667 11.3667 33.1 8.3C36.1667 5.63333 39.6667 3.63333 43.6 2.3C47.5333 0.899996 51.7 0.199995 56.1 0.199995C63.3 0.199995 68.8333 2.06666 72.7 5.79999C76.5667 9.53333 78.5 14.4 78.5 20.4C78.5 24.4667 77.7667 27.7667 76.3 30.3C74.8333 32.7667 72.8 34 70.2 34C68.3333 34 66.8667 33.5667 65.8 32.7C64.7333 31.7667 64.2 30.4667 64.2 28.8C64.2 28.2 64.3333 27.1 64.6 25.5C65 23.6333 65.2 21.9667 65.2 20.5C65.2 17.7 64.3667 15.5 62.7 13.9C61.1 12.2333 58.6333 11.4 55.3 11.4C49.4333 11.4 44.9 13.3333 41.7 17.2C38.5 21 36.4667 27 35.6 35.2L33.3 57.9C32.9667 61.1 32.5333 63.8667 32 66.2C36.2667 66.9333 41.6 68.1 48 69.7C51.7333 70.6333 54.6 71.3 56.6 71.7C58.6 72.1 60.3667 72.3 61.9 72.3C65.7667 72.3 69.0667 71.6667 71.8 70.4C74.6 69.0667 77.2333 66.9667 79.7 64.1C80.5 63.1667 81.4 62.7 82.4 62.7ZM128.285 62.9C129.152 62.9 129.818 63.3333 130.285 64.2C130.818 65 131.085 66.0333 131.085 67.3C131.085 68.8333 130.852 70.0333 130.385 70.9C129.918 71.7667 129.185 72.5333 128.185 73.2L108.985 86.1C106.452 99.9 103.118 110.733 98.9852 118.6C94.9185 126.533 89.7185 130.5 83.3852 130.5C79.9852 130.5 77.2185 129.433 75.0852 127.3C72.9518 125.233 71.8852 122.5 71.8852 119.1C71.8852 115.967 72.5852 112.767 73.9852 109.5C75.4518 106.233 78.1185 102.467 81.9852 98.2C85.9185 94 91.4518 89.1667 98.5852 83.7L98.8852 81.4C99.3518 78.9333 99.8852 75.4 100.485 70.8C99.1518 75.6 97.2852 79.2667 94.8852 81.8C92.4852 84.2667 89.9518 85.5 87.2852 85.5C84.2852 85.5 81.8185 84.1333 79.8852 81.4C78.0185 78.6 77.0852 75.1333 77.0852 71C77.0852 66 77.4185 61.4333 78.0852 57.3C78.7518 53.1 79.8518 48.6667 81.3852 44C82.0518 42 82.9852 40.5667 84.1852 39.7C85.3852 38.8333 87.2852 38.4 89.8852 38.4C91.3518 38.4 92.3518 38.6333 92.8852 39.1C93.4852 39.5667 93.7852 40.2667 93.7852 41.2C93.7852 41.7333 93.4185 43.5333 92.6852 46.6C92.0185 49.0667 91.4852 51.3 91.0852 53.3C90.5518 56.0333 90.0852 58.6667 89.6852 61.2C89.2852 63.6667 89.0852 65.7 89.0852 67.3C89.0852 69.8333 89.7852 71.1 91.1852 71.1C92.1852 71.1 93.4185 70.1 94.8852 68.1C96.4185 66.1 98.0185 63.0667 99.6852 59C101.418 54.9333 103.085 49.9333 104.685 44C105.218 42 106.018 40.5667 107.085 39.7C108.218 38.8333 109.885 38.4 112.085 38.4C113.618 38.4 114.685 38.6 115.285 39C115.885 39.4 116.185 40.0667 116.185 41C116.185 42.6667 115.318 48.4 113.585 58.2L110.985 74.3C116.118 70.4333 121.118 66.9 125.985 63.7C126.852 63.1667 127.618 62.9 128.285 62.9ZM84.4852 120.8C86.1518 120.8 88.0185 118.867 90.0852 115C92.1518 111.133 94.2185 104.7 96.2852 95.7C91.1518 100.033 87.4185 103.967 85.0852 107.5C82.8185 111.1 81.6852 114.233 81.6852 116.9C81.6852 118.033 81.8852 118.967 82.2852 119.7C82.7518 120.433 83.4852 120.8 84.4852 120.8ZM130.963 85.5C128.429 85.5 126.629 84.1667 125.563 81.5C124.563 78.8333 124.063 74.5667 124.063 68.7C124.063 60.0333 125.296 51.8 127.763 44C128.363 42.0667 129.329 40.6667 130.663 39.8C132.063 38.8667 133.996 38.4 136.463 38.4C137.796 38.4 138.729 38.5667 139.263 38.9C139.796 39.2333 140.063 39.8667 140.063 40.8C140.063 41.8667 139.563 44.2667 138.563 48C137.896 50.6667 137.363 53 136.963 55C136.563 57 136.229 59.4667 135.963 62.4C138.163 56.6667 140.629 52 143.363 48.4C146.096 44.8 148.763 42.2333 151.363 40.7C154.029 39.1667 156.463 38.4 158.663 38.4C162.996 38.4 165.163 40.5667 165.163 44.9C165.163 45.7667 164.863 47.8667 164.263 51.2C163.729 53.8667 163.463 55.5333 163.463 56.2C163.463 58.5333 164.296 59.7 165.963 59.7C167.829 59.7 170.229 58.2333 173.163 55.3C174.029 54.4333 174.929 54 175.863 54C176.729 54 177.396 54.4 177.862 55.2C178.396 55.9333 178.663 56.9333 178.663 58.2C178.663 60.6667 177.996 62.6 176.663 64C174.796 65.9333 172.596 67.6 170.063 69C167.596 70.3333 164.963 71 162.163 71C158.629 71 155.929 70.1 154.063 68.3C152.263 66.5 151.363 64.0667 151.363 61C151.363 60 151.463 59 151.663 58C151.796 56.6667 151.863 55.7667 151.863 55.3C151.863 54.2333 151.496 53.7 150.763 53.7C149.763 53.7 148.429 54.8333 146.763 57.1C145.163 59.3 143.563 62.2333 141.963 65.9C140.363 69.5667 139.063 73.4333 138.063 77.5C137.329 80.6333 136.463 82.7667 135.463 83.9C134.529 84.9667 133.029 85.5 130.963 85.5ZM188.47 85.5C181.937 85.5 176.837 83.6667 173.17 80C169.57 76.2667 167.77 71.3667 167.77 65.3C167.77 59.9 168.837 55.1667 170.97 51.1C173.104 47.0333 175.87 43.9 179.27 41.7C182.67 39.5 186.237 38.4 189.97 38.4C193.637 38.4 196.47 39.5 198.47 41.7C200.537 43.8333 201.57 46.6 201.57 50C201.57 52.8 200.937 55.1667 199.67 57.1C198.47 59.0333 196.87 60 194.87 60C193.604 60 192.57 59.7 191.77 59.1C191.037 58.5 190.67 57.6667 190.67 56.6C190.67 56.1333 190.737 55.6 190.87 55C191.004 54.4 191.104 53.9667 191.17 53.7C191.504 52.7 191.67 51.7667 191.67 50.9C191.67 50.0333 191.437 49.3667 190.97 48.9C190.57 48.4333 189.97 48.2 189.17 48.2C187.637 48.2 186.204 48.9 184.87 50.3C183.537 51.6333 182.47 53.4667 181.67 55.8C180.87 58.1333 180.47 60.7 180.47 63.5C180.47 71.2333 183.837 75.1 190.57 75.1C193.304 75.1 196.237 74.2 199.37 72.4C202.57 70.5333 205.704 67.7667 208.77 64.1C209.57 63.1667 210.47 62.7 211.47 62.7C212.337 62.7 213.004 63.1 213.47 63.9C214.004 64.7 214.27 65.8 214.27 67.2C214.27 69.7333 213.637 71.8 212.37 73.4C209.237 77.2667 205.47 80.2667 201.07 82.4C196.737 84.4667 192.537 85.5 188.47 85.5ZM224.787 87.7C221.32 87.7 218.653 86.9 216.787 85.3C214.987 83.7 214.087 81.9 214.087 79.9C214.087 78.1667 214.72 76.6667 215.987 75.4C217.253 74.1333 219.12 73.5 221.587 73.5C222.453 73.5 223.453 73.6 224.587 73.8C225.787 73.9333 226.687 74.0333 227.287 74.1C227.22 72.3667 226.82 70.7333 226.087 69.2C225.42 67.6667 224.553 66.2 223.487 64.8C222.42 63.3333 221.42 62.0667 220.487 61C218.42 64.9333 216.353 68.2 214.287 70.8C212.287 73.4 210.087 75.8667 207.687 78.2C206.487 79.4 205.22 80 203.887 80C202.82 80 201.953 79.6333 201.287 78.9C200.62 78.1 200.287 77.1333 200.287 76C200.287 74.6667 200.753 73.4333 201.687 72.3L202.987 70.7C206.653 66.1667 209.42 62.4333 211.287 59.5C212.487 57.5667 213.687 55.2667 214.887 52.6C216.153 49.9333 217.787 46.3 219.787 41.7C221.053 38.7667 223.687 37.3 227.687 37.3C229.553 37.3 230.853 37.4667 231.587 37.8C232.32 38.1333 232.687 38.6667 232.687 39.4C232.687 39.8 232.553 40.4333 232.287 41.3C232.02 42.1667 231.653 43.0333 231.187 43.9C229.987 46.3 229.387 48.3333 229.387 50C229.387 51 229.72 52.1 230.387 53.3C231.12 54.5 232.22 56 233.687 57.8C235.82 60.6 237.42 63 238.487 65C239.62 66.9333 240.187 69.0667 240.187 71.4C240.187 74.2 239.52 76.8667 238.187 79.4C236.92 81.8667 235.12 83.8667 232.787 85.4C230.453 86.9333 227.787 87.7 224.787 87.7Z" fill="url(#paint0_linear_505_49)"/>
<defs>
<linearGradient id="paint0_linear_505_49" x1="5" y1="2" x2="241" y2="84.6667" gradientUnits="userSpaceOnUse">
<stop stop-color="#16C2BF"/>
<stop offset="1" stop-color="#9253BD"/>
</linearGradient>
</defs>
</svg>
